apps/symbolic/gnome-aisleriot-symbolic.svg

<?xml version="1.0" encoding="UTF-8" standalone="no"?>
<svg
   xmlns:dc="http://purl.org/dc/elements/1.1/"
   xmlns:cc="http://creativecommons.org/ns#"
   xmlns:rdf="http://www.w3.org/1999/02/22-rdf-syntax-ns#"
   xmlns:svg="http://www.w3.org/2000/svg"
   xmlns="http://www.w3.org/2000/svg"
   xmlns:sodipodi="http://sodipodi.sourceforge.net/DTD/sodipodi-0.dtd"
   xmlns:inkscape="http://www.inkscape.org/namespaces/inkscape"
   version="1.1"
   width="24"
   height="24"
   viewBox="0 0 24 24"
   id="svg2"
   inkscape:version="0.92.1 r15371"
   sodipodi:docname="gnome-aisleriot-symbolic.svg">
  <metadata
     id="metadata10">
    <rdf:RDF>
      <cc:Work
         rdf:about="">
        <dc:format>image/svg+xml</dc:format>
        <dc:type
           rdf:resource="http://purl.org/dc/dcmitype/StillImage" />
      </cc:Work>
    </rdf:RDF>
  </metadata>
  <defs
     id="defs8" />
  <sodipodi:namedview
     pagecolor="#ffffff"
     bordercolor="#666666"
     borderopacity="1"
     objecttolerance="10"
     gridtolerance="10"
     guidetolerance="10"
     inkscape:pageopacity="0"
     inkscape:pageshadow="2"
     inkscape:window-width="640"
     inkscape:window-height="480"
     id="namedview6"
     showgrid="false"
     inkscape:zoom="25.291667"
     inkscape:cx="10.576606"
     inkscape:cy="15.163097"
     inkscape:current-layer="svg2" />
  <path
     d="m 11.073838,3.8092394 c -0.224053,0 -0.447701,0.052041 -0.663137,0.129598 L 4.0688155,6.5661419 C 3.1898382,6.9280736 2.7677191,7.9376587 3.1296509,8.8080185 l 4.273367,10.2971485 c 0.2671402,0.663542 0.8966834,1.068359 1.560225,1.085594 0.2240531,0 0.4559156,-0.04322 0.6799686,-0.138014 l 6.3519845,-2.627304 c 0.646307,-0.267141 1.043111,-0.905705 1.060346,-1.543394 0.0086,-0.224053 -0.03521,-0.47443 -0.112766,-0.698483 L 12.634064,4.8864174 C 12.384158,4.2228758 11.745998,3.8178568 11.073838,3.8092394 Z m 2.999268,0 2.972338,7.1867976 V 5.5327242 A 1.7234848,1.7234848 0 0 0 15.32196,3.8092394 Z m 4.705921,1.3262754 V 12.918126 L 20.872792,7.868854 C 21.226107,6.9898767 20.821222,5.9804936 19.933627,5.6185618 Z M 8.7090962,9.0537496 11.492928,11.130684 11.114233,14.586069 8.3304009,12.50072 Z"
     id="path4"
     style="fill:#bebebe;fill-opacity:1;stroke-width:0.86174238"
     inkscape:connector-curvature="0" />
</svg>

<svg xmlns="http://www.w3.org/2000/svg" viewBox="0 0 24 24">
  <path fill="#bebebe" d="M11.074 3.81c-.224 0-.448.051-.663.129L4.069 6.566a1.72 1.72 0 0 0-.94 2.242l4.274 10.297a1.733 1.733 0 0 0 1.56 1.086c.224 0 .456-.043.68-.138l6.352-2.628a1.74 1.74 0 0 0 1.06-1.543 1.977 1.977 0 0 0-.112-.698L12.634 4.886a1.684 1.684 0 0 0-1.56-1.077zm3 0l2.971 7.186V5.533a1.723 1.723 0 0 0-1.723-1.724zm4.705 1.326v7.782l2.094-5.05a1.726 1.726 0 0 0-.94-2.25zM8.709 9.054l2.784 2.077-.379 3.455-2.784-2.085z"/>
</svg>
